X:1
T:C'est la VISA
M:6/8
L:1/8
Q:110
C:(c) Greg Anderson, 8 Aug 1999
R:Jig
N:Inspired by an aborted, cash short, mission to buy our first batch of
N:pain au chocolat at our local boulangerie in Talence.
K:G
D|:gfb agf|gfe B3|B2 B Bcd|c3- c2 d|cBA BAG|
F2 F F3|1dfa c'bf|gde fga:|2dfa c'bf|g2 z f3
|:efg feB|eba gfe|fda gfd|egf edB|efg feB|
AGA BGE|1FAd agf|eBg e2 f:|2dfa c'bf|gba g2 d||
